<?xml version="1.0" encoding="UTF-8"?>
<map version="1.10" tiledversion="1.12.2" orientation="orthogonal" renderorder="right-down" width="23" height="11" tilewidth="16" tileheight="16" infinite="0" nextlayerid="8" nextobjectid="4">
 <tileset firstgid="1" source="../tiles/Dungeon_Tiles.tsx"/>
 <tileset firstgid="626" source="../tiles/Props.tsx"/>
 <tileset firstgid="1251" source="../tiles/Interior_Props_01.tsx"/>
 <layer id="3" name="collision" class="collision" width="23" height="11">
  <data encoding="csv">
309,309,309,309,309,309,309,309,309,309,309,309,309,309,309,309,309,309,309,309,309,309,309,
309,309,309,309,309,309,309,309,309,309,309,309,309,309,309,309,309,309,309,309,309,309,309,
309,309,309,309,309,309,0,309,309,309,0,0,0,0,0,0,309,309,309,309,309,309,309,
309,309,309,309,309,309,0,309,309,0,0,0,0,309,309,0,309,309,309,309,309,309,309,
309,309,309,309,309,309,0,309,309,309,0,0,0,309,309,309,309,309,309,309,309,309,309,
309,309,309,309,309,309,0,309,309,309,0,0,309,309,309,309,309,309,309,309,309,309,309,
309,309,309,309,309,309,0,0,0,0,0,0,0,0,309,0,309,309,309,309,309,309,309,
309,309,309,309,309,309,0,309,309,0,0,0,0,0,0,0,309,309,309,309,309,309,309,
309,309,309,309,309,309,309,309,309,309,309,309,0,0,309,309,309,309,309,309,309,309,309,
309,309,309,309,309,309,309,309,309,309,309,309,309,309,309,309,309,309,309,309,309,309,309,
309,309,309,309,309,309,309,309,309,309,309,309,309,309,309,309,309,309,309,309,309,309,309
</data>
 </layer>
 <layer id="1" name="ground" width="23" height="11">
  <data encoding="csv">
34,34,34,34,34,34,34,34,34,34,34,34,34,34,34,34,34,34,34,34,34,34,34,
34,34,34,34,34,94,94,94,94,94,94,94,94,94,94,94,94,34,34,34,34,34,34,
34,34,34,34,34,94,18,19,19,19,19,19,19,19,19,20,94,34,34,34,34,34,34,
34,34,34,34,34,94,43,41,41,41,41,41,41,41,41,45,94,34,34,34,34,34,34,
34,34,34,34,34,94,43,41,41,41,41,41,41,41,41,45,94,34,34,34,34,34,34,
34,34,34,34,34,94,43,41,41,41,41,41,41,41,41,45,94,34,34,34,34,34,34,
34,34,34,34,34,94,43,41,41,41,41,41,41,41,41,45,94,34,34,34,34,34,34,
34,34,34,34,34,94,43,41,41,41,41,41,41,41,41,45,94,34,34,34,34,34,34,
34,34,34,34,34,94,68,69,69,69,69,69,23,21,69,70,94,34,34,34,34,34,34,
34,34,34,34,34,94,94,94,94,94,94,94,43,45,94,94,94,34,34,34,34,34,34,
34,34,34,34,34,34,34,34,34,34,34,34,34,34,34,34,34,34,34,34,34,34,34
</data>
 </layer>
 <layer id="4" name="walls" width="23" height="11">
  <data encoding="csv">
0,0,0,0,0,0,0,0,0,0,0,0,0,0,0,0,0,0,0,0,0,0,0,
0,0,0,0,0,0,0,0,0,0,0,0,0,0,0,0,0,0,0,0,0,0,0,
0,0,0,0,0,0,0,0,0,0,0,0,0,0,0,0,0,0,0,0,0,0,0,
0,0,0,0,0,0,0,0,0,0,0,0,0,0,0,0,0,0,0,0,0,0,0,
0,0,0,0,0,0,0,0,0,0,0,0,0,0,0,0,0,0,0,0,0,0,0,
0,0,0,0,0,0,0,0,0,0,0,0,0,0,0,0,0,0,0,0,0,0,0,
0,0,0,0,0,0,0,0,0,0,0,0,0,0,0,0,0,0,0,0,0,0,0,
0,0,0,0,0,0,0,0,0,0,0,0,0,0,0,0,0,0,0,0,0,0,0,
0,0,0,0,0,0,0,0,0,0,0,0,0,0,0,0,0,0,0,0,0,0,0,
0,0,0,0,0,0,0,0,0,0,0,0,0,0,0,0,0,0,0,0,0,0,0,
0,0,0,0,0,0,0,0,0,0,0,0,0,0,0,0,0,0,0,0,0,0,0
</data>
 </layer>
 <layer id="5" name="water" width="23" height="11">
  <data encoding="csv">
0,0,0,0,0,0,0,0,0,0,0,0,0,0,0,0,0,0,0,0,0,0,0,
0,0,0,0,0,0,0,0,0,0,0,0,0,0,0,0,0,0,0,0,0,0,0,
0,0,0,0,0,0,0,0,0,0,0,0,0,0,0,0,0,0,0,0,0,0,0,
0,0,0,0,0,0,0,0,0,0,0,0,0,0,0,0,0,0,0,0,0,0,0,
0,0,0,0,0,0,0,0,0,0,0,0,0,0,0,0,0,0,0,0,0,0,0,
0,0,0,0,0,0,0,0,0,0,0,0,0,0,0,0,0,0,0,0,0,0,0,
0,0,0,0,0,0,0,0,0,0,0,0,0,0,0,0,0,0,0,0,0,0,0,
0,0,0,0,0,0,0,0,0,0,0,0,0,0,0,0,0,0,0,0,0,0,0,
0,0,0,0,0,0,0,0,0,0,0,0,0,0,0,0,0,0,0,0,0,0,0,
0,0,0,0,0,0,0,0,0,0,0,0,0,0,0,0,0,0,0,0,0,0,0,
0,0,0,0,0,0,0,0,0,0,0,0,0,0,0,0,0,0,0,0,0,0,0
</data>
 </layer>
 <layer id="6" name="decor" width="23" height="11">
  <data encoding="csv">
0,0,0,0,0,0,0,0,0,0,0,0,0,0,0,0,0,0,0,0,0,0,0,
0,0,0,0,0,0,0,0,0,0,1865,1866,0,0,0,0,0,0,0,0,0,0,0,
0,0,0,0,0,0,0,1937,1938,1939,0,0,0,1414,1415,0,0,0,0,0,0,0,0,
0,0,0,0,0,0,0,1975,1976,1977,0,0,0,1452,1453,0,0,0,0,0,0,0,0,
0,0,0,0,0,0,0,2013,2014,2015,0,0,1255,1631,1632,1633,0,0,0,0,0,0,0,
0,0,0,0,0,0,0,2051,2052,2053,0,0,1293,1669,1670,1671,0,0,0,0,0,0,0,
0,0,0,0,0,0,0,1531,1530,0,0,0,0,0,1446,0,0,0,0,0,0,0,0,
0,0,0,0,0,0,0,1569,1568,0,0,0,0,0,0,0,0,0,0,0,0,0,0,
0,0,0,0,0,0,0,0,0,0,0,0,0,0,0,0,0,0,0,0,0,0,0,
0,0,0,0,0,0,0,0,0,0,0,0,0,0,0,0,0,0,0,0,0,0,0,
0,0,0,0,0,0,0,0,0,0,0,0,0,0,0,0,0,0,0,0,0,0,0
</data>
 </layer>
 <objectgroup id="2" name="doors">
  <object id="1" name="campground" x="196.952" y="142.05" width="22.6582" height="16.9937">
   <properties>
    <property name="spawnx" type="float" value="0.5"/>
    <property name="spawny" type="float" value="0.65"/>
    <property name="targetName" value="The Camp Ground"/>
   </properties>
  </object>
 </objectgroup>
</map>
