<?xml version="1.0" encoding="UTF-8"?>
<map version="1.10" tiledversion="1.12.2" orientation="orthogonal" renderorder="right-down" width="23" height="11" tilewidth="16" tileheight="16" infinite="0" nextlayerid="7" nextobjectid="2">
 <tileset firstgid="1" source="../tiles/Dungeon_Tiles.tsx"/>
 <tileset firstgid="626" source="../tiles/Interior_Props_01.tsx"/>
 <tileset firstgid="1538" source="../tiles/Props.tsx"/>
 <layer id="3" name="collision" class="collision" width="23" height="11">
  <data encoding="csv">
309,309,309,309,309,309,309,309,309,309,309,309,309,309,309,309,309,309,309,309,309,309,309,
309,309,309,309,309,309,309,309,309,309,309,309,309,309,309,309,309,309,309,309,309,309,309,
309,309,309,309,309,309,0,309,309,0,0,0,0,0,309,0,309,309,309,309,309,309,309,
309,309,309,309,309,309,0,309,309,0,0,0,309,309,309,309,309,309,309,309,309,309,309,
309,309,309,309,309,309,0,309,309,0,0,0,309,309,309,0,309,309,309,309,309,309,309,
309,309,309,309,309,309,0,309,309,0,0,0,309,309,309,0,309,309,309,309,309,309,309,
309,309,309,309,309,309,0,0,0,0,0,0,0,0,0,0,309,309,309,309,309,309,309,
309,309,309,309,309,309,0,309,309,0,0,0,0,0,0,0,309,309,309,309,309,309,309,
309,309,309,309,309,309,309,309,309,309,309,309,0,0,309,309,309,309,309,309,309,309,309,
309,309,309,309,309,309,309,309,309,309,309,309,309,309,309,309,309,309,309,309,309,309,309,
309,309,309,309,309,309,309,309,309,309,309,309,309,309,309,309,309,309,309,309,309,309,309
</data>
 </layer>
 <layer id="1" name="ground" width="23" height="11">
  <data encoding="csv">
34,34,34,34,34,34,34,34,34,34,34,34,34,34,34,34,34,34,34,34,34,34,34,
34,34,34,34,34,94,94,94,94,94,94,94,94,94,94,94,94,34,34,34,34,34,34,
34,34,34,34,34,94,18,19,19,19,19,19,19,19,19,20,94,34,34,34,34,34,34,
34,34,34,34,34,94,43,41,41,41,41,41,41,41,41,45,94,34,34,34,34,34,34,
34,34,34,34,34,94,43,41,41,41,41,41,41,41,41,45,94,34,34,34,34,34,34,
34,34,34,34,34,94,43,41,41,41,41,41,41,41,41,45,94,34,34,34,34,34,34,
34,34,34,34,34,94,43,41,41,41,41,41,41,41,41,45,94,34,34,34,34,34,34,
34,34,34,34,34,94,43,41,41,41,41,41,41,41,41,45,94,34,34,34,34,34,34,
34,34,34,34,34,94,68,69,69,69,69,69,23,21,69,70,94,34,34,34,34,34,34,
34,34,34,34,34,94,94,94,94,94,94,94,43,45,94,94,94,34,34,34,34,34,34,
34,34,34,34,34,34,34,34,34,34,34,34,34,34,34,34,34,34,34,34,34,34,34
</data>
 </layer>
 <layer id="4" name="walls" width="23" height="11">
  <data encoding="csv">
0,0,0,0,0,0,0,0,0,0,0,0,0,0,0,0,0,0,0,0,0,0,0,
0,0,0,0,0,0,0,0,0,0,0,0,0,0,0,0,0,0,0,0,0,0,0,
0,0,0,0,0,0,0,0,0,0,0,0,0,0,0,0,0,0,0,0,0,0,0,
0,0,0,0,0,0,0,0,0,0,0,0,0,0,0,0,0,0,0,0,0,0,0,
0,0,0,0,0,0,0,0,0,0,0,0,0,0,0,0,0,0,0,0,0,0,0,
0,0,0,0,0,0,0,0,0,0,0,0,0,0,0,0,0,0,0,0,0,0,0,
0,0,0,0,0,0,0,0,0,0,0,0,0,0,0,0,0,0,0,0,0,0,0,
0,0,0,0,0,0,0,0,0,0,0,0,0,0,0,0,0,0,0,0,0,0,0,
0,0,0,0,0,0,0,0,0,0,0,0,0,0,0,0,0,0,0,0,0,0,0,
0,0,0,0,0,0,0,0,0,0,0,0,0,0,0,0,0,0,0,0,0,0,0,
0,0,0,0,0,0,0,0,0,0,0,0,0,0,0,0,0,0,0,0,0,0,0
</data>
 </layer>
 <layer id="5" name="water" width="23" height="11">
  <data encoding="csv">
0,0,0,0,0,0,0,0,0,0,0,0,0,0,0,0,0,0,0,0,0,0,0,
0,0,0,0,0,0,0,0,0,0,0,0,0,0,0,0,0,0,0,0,0,0,0,
0,0,0,0,0,0,0,0,0,0,0,0,0,0,0,0,0,0,0,0,0,0,0,
0,0,0,0,0,0,0,0,0,0,0,0,0,0,0,0,0,0,0,0,0,0,0,
0,0,0,0,0,0,0,0,0,0,0,0,0,0,0,0,0,0,0,0,0,0,0,
0,0,0,0,0,0,0,0,0,0,0,0,0,0,0,0,0,0,0,0,0,0,0,
0,0,0,0,0,0,0,0,0,0,0,0,0,0,0,0,0,0,0,0,0,0,0,
0,0,0,0,0,0,0,0,0,0,0,0,0,0,0,0,0,0,0,0,0,0,0,
0,0,0,0,0,0,0,0,0,0,0,0,0,0,0,0,0,0,0,0,0,0,0,
0,0,0,0,0,0,0,0,0,0,0,0,0,0,0,0,0,0,0,0,0,0,0,
0,0,0,0,0,0,0,0,0,0,0,0,0,0,0,0,0,0,0,0,0,0,0
</data>
 </layer>
 <layer id="6" name="decor" width="23" height="11">
  <data encoding="csv">
0,0,0,0,0,0,0,0,0,0,0,0,0,0,0,0,0,0,0,0,0,0,0,
0,0,0,0,0,0,0,0,0,0,0,0,0,0,1465,0,0,0,0,0,0,0,0,
0,0,0,0,0,0,0,1310,1311,0,0,0,0,0,1503,1466,0,0,0,0,0,0,0,
0,0,0,0,0,0,0,1348,1349,0,0,0,646,647,648,1504,0,0,0,0,0,0,0,
0,0,0,0,0,0,0,1386,1387,0,0,0,684,685,686,0,0,0,0,0,0,0,0,
0,0,0,0,0,0,0,1424,1425,0,0,0,722,723,724,0,0,0,0,0,0,0,0,
0,0,0,0,0,0,0,0,0,0,0,0,0,0,0,0,0,0,0,0,0,0,0,
0,0,0,0,0,0,0,1739,1740,0,0,0,0,0,0,0,0,0,0,0,0,0,0,
0,0,0,0,0,0,0,0,0,0,0,0,0,0,0,0,0,0,0,0,0,0,0,
0,0,0,0,0,0,0,0,0,0,0,0,0,0,0,0,0,0,0,0,0,0,0,
0,0,0,0,0,0,0,0,0,0,0,0,0,0,0,0,0,0,0,0,0,0,0
</data>
 </layer>
 <objectgroup id="2" name="doors">
  <object id="1" name="campground" x="196.516" y="142.05" width="23.5297" height="17.8651">
   <properties>
    <property name="spawnx" type="float" value="0.5"/>
    <property name="spawny" type="float" value="0.9"/>
    <property name="targetName" value="The Camp Ground"/>
   </properties>
  </object>
 </objectgroup>
</map>
