<?xml version="1.0" encoding="UTF-8"?>
<map version="1.10" tiledversion="1.12.2" orientation="orthogonal" renderorder="right-down" width="23" height="11" tilewidth="16" tileheight="16" infinite="0" nextlayerid="7" nextobjectid="3">
 <tileset firstgid="1" source="../tiles/Dungeon_Tiles.tsx"/>
 <tileset firstgid="626" source="../tiles/Floors_Tiles.tsx"/>
 <tileset firstgid="1276" source="../tiles/Roofs.tsx"/>
 <tileset firstgid="1901" source="../tiles/Wall_Tiles.tsx"/>
 <tileset firstgid="2526" source="Props.tsx"/>
 <layer id="1" name="collision" width="23" height="11">
  <data encoding="csv">
0,0,0,0,0,0,0,0,0,0,0,0,0,1985,1985,1985,1985,1985,1985,1985,1985,1985,1985,
0,0,0,0,0,0,0,0,0,0,0,0,0,1985,1985,1985,0,1985,1985,1985,1985,1985,1985,
0,0,0,0,0,0,0,0,0,0,0,0,0,1985,1985,1985,1985,1985,1985,1985,1985,1985,1985,
0,0,0,0,0,0,0,0,0,0,0,0,0,1985,1985,1985,1985,0,0,1985,1985,1985,1985,
0,0,0,0,0,0,0,0,0,0,0,0,0,1985,1985,1985,1985,0,0,1985,1985,1985,1985,
0,0,0,0,0,0,0,0,0,0,0,0,0,1985,1985,1985,1985,0,0,1985,1985,1985,1985,
0,0,0,0,0,0,0,0,0,0,0,0,0,1985,0,0,0,0,0,0,0,0,1985,
0,0,0,0,0,0,0,0,0,0,0,0,0,0,0,0,0,0,0,0,0,0,0,
0,0,0,0,0,0,0,0,0,0,0,0,0,0,0,0,0,0,0,0,0,0,0,
0,0,0,0,0,0,0,0,0,0,0,0,0,0,0,0,0,0,0,0,0,0,0,
0,0,0,0,0,0,0,0,0,0,0,0,0,0,0,0,0,0,0,0,0,0,0
</data>
 </layer>
 <layer id="5" name="ground" width="23" height="11">
  <data encoding="csv">
878,878,878,878,904,904,904,904,904,878,904,904,878,904,94,94,94,94,94,94,94,94,94,
878,878,878,904,904,878,904,878,878,878,904,904,904,94,94,94,94,94,94,94,94,94,94,
878,904,904,878,904,904,878,878,878,904,904,904,878,119,119,119,119,119,119,119,119,119,119,
904,878,878,904,904,878,878,878,904,878,904,878,878,878,878,878,878,878,878,878,878,878,878,
904,878,904,878,904,904,904,904,904,904,904,904,904,904,878,878,878,878,878,878,878,878,878,
904,878,904,878,904,878,904,904,904,878,904,904,904,904,878,878,878,878,878,878,878,878,878,
904,904,904,878,904,904,904,904,904,904,904,904,904,904,904,904,904,904,904,904,878,878,878,
878,904,904,904,904,904,904,904,904,904,878,904,878,904,878,878,878,904,878,904,904,904,904,
904,904,904,878,904,904,904,904,878,878,904,904,904,904,904,904,904,904,904,904,904,904,904,
904,904,878,878,878,904,904,904,904,904,904,904,904,904,904,904,904,904,904,878,878,878,904,
878,878,904,878,878,878,904,904,878,878,878,878,878,878,878,904,878,878,878,878,878,904,904
</data>
 </layer>
 <layer id="3" name="walls" width="23" height="11">
  <data encoding="csv">
4,1,2,2,2,2,2,2,2,2,3,3,3,0,0,0,0,0,0,0,0,0,0,
29,26,27,27,27,27,27,27,27,27,27,28,28,0,0,0,0,0,0,0,0,0,0,
54,51,52,52,52,52,52,52,52,52,52,53,53,0,0,0,0,0,0,0,0,0,0,
79,0,0,0,0,0,0,0,0,0,0,0,0,4,1,2,3,176,177,1,2,3,4,
0,0,0,0,0,0,0,0,0,0,0,0,0,29,26,27,28,201,202,26,27,28,29,
0,0,0,0,0,0,0,0,0,0,0,0,0,54,51,52,53,226,227,51,52,53,54,
0,0,0,0,0,0,0,0,0,0,0,0,0,79,0,0,0,0,0,0,0,0,79,
0,0,0,0,0,0,0,0,0,0,0,0,0,0,0,0,0,0,0,0,0,0,0,
0,0,0,0,0,0,0,0,0,0,0,0,0,0,0,0,0,0,0,0,0,0,0,
0,0,0,0,0,0,0,0,0,0,0,0,0,0,0,0,0,0,0,0,0,0,0,
0,0,0,0,0,0,0,0,0,0,0,0,0,0,0,0,0,0,0,0,0,0,0
</data>
 </layer>
 <layer id="6" name="water" width="23" height="11">
  <data encoding="csv">
0,0,0,0,0,0,0,0,0,0,0,0,0,0,0,0,0,0,0,0,0,0,0,
0,0,0,0,0,0,0,0,0,0,0,0,0,0,0,0,0,0,0,0,0,0,0,
0,0,0,0,0,0,0,0,0,0,0,0,0,0,0,0,0,0,0,0,0,0,0,
0,0,0,0,0,0,0,0,0,0,0,0,0,0,0,0,0,0,0,0,0,0,0,
0,0,0,0,0,0,0,0,0,0,0,0,0,0,0,0,0,0,0,0,0,0,0,
0,0,0,0,0,0,0,0,0,0,0,0,0,0,0,0,0,0,0,0,0,0,0,
0,0,0,0,0,0,0,0,0,0,0,0,0,0,0,0,0,0,0,0,0,0,0,
0,0,0,0,0,0,0,0,0,0,0,0,0,0,0,0,0,0,0,0,0,0,0,
0,0,0,0,0,0,0,0,0,0,0,0,0,0,0,0,0,0,0,0,0,0,0,
0,0,0,0,0,0,0,0,0,0,0,0,0,0,0,0,0,0,0,0,0,0,0,
0,0,0,0,0,0,0,0,0,0,0,0,0,0,0,0,0,0,0,0,0,0,0
</data>
 </layer>
 <layer id="4" name="decor" width="23" height="11">
  <data encoding="csv">
0,0,256,257,0,0,0,0,0,256,257,0,1326,1327,1328,1328,1328,1329,1355,1331,1332,1332,1332,
0,0,281,282,0,0,0,0,0,281,282,0,1351,1352,1353,1377,1378,1379,1380,1381,1382,1331,1331,
0,0,331,332,0,2781,2782,2783,2784,331,332,0,1376,1377,1378,1402,0,0,0,0,1407,1381,1382,
0,0,0,12,0,2806,2807,2808,2809,0,0,0,1401,1402,0,0,0,0,0,0,0,0,1407,
0,0,0,0,0,0,0,0,0,0,0,0,0,0,0,0,0,0,0,0,0,0,0,
12,0,0,0,0,0,12,0,0,0,12,0,0,0,0,0,0,0,0,0,0,0,0,
0,0,12,0,12,12,12,12,0,0,0,0,0,0,0,0,0,0,0,0,0,0,0,
0,0,0,12,0,0,0,12,0,0,0,12,0,0,0,0,12,0,0,0,0,12,0,
12,0,0,0,0,0,0,0,0,0,0,0,0,0,0,0,0,12,12,12,12,12,0,
0,0,0,12,12,12,0,0,0,0,12,0,0,0,12,12,12,0,12,0,0,0,12,
0,12,0,0,0,0,0,0,12,0,0,0,0,0,0,0,0,0,12,0,0,0,12
</data>
 </layer>
 <objectgroup id="2" name="doors" visible="0">
  <object id="1" name="Inside Shed" x="275.421" y="56.9837" width="24.6929" height="33.557">
   <properties>
    <property name="TargetName" value="Inside Shed"/>
    <property name="spawnx" type="float" value="0.5"/>
    <property name="spawny" type="float" value="0.9"/>
   </properties>
  </object>
  <object id="2" x="18.9946" y="8.86413"/>
 </objectgroup>
</map>
