<?xml version="1.0" encoding="UTF-8"?>
<map version="1.10" tiledversion="1.12.2" orientation="orthogonal" renderorder="right-down" width="23" height="11" tilewidth="16" tileheight="16" infinite="0" nextlayerid="7" nextobjectid="2">
 <tileset firstgid="1" source="../tiles/Floors_Tiles.tsx"/>
 <tileset firstgid="651" source="../tiles/Wall_Tiles.tsx"/>
 <tileset firstgid="1276" source="../tiles/Props.tsx"/>
 <tileset firstgid="1901" source="../tiles/Dungeon_Tiles.tsx"/>
 <tileset firstgid="2526" source="../tiles/Roofs.tsx"/>
 <tileset firstgid="3151" source="../tiles/Interior_Props_01.tsx"/>
 <layer id="2" name="Collisions" width="23" height="11">
  <data encoding="csv">
0,0,0,0,0,1954,1954,1954,1954,1954,1954,1954,1954,1954,0,0,0,0,0,0,0,0,0,
0,0,1954,1954,1954,1954,0,0,0,0,0,0,0,1954,0,0,0,0,0,0,0,0,0,
0,0,1954,0,0,0,0,0,0,0,0,0,0,1954,0,0,0,0,0,0,0,0,0,
0,0,1954,0,0,0,0,0,0,0,0,0,0,1931,0,0,0,0,0,0,0,0,0,
0,0,1954,0,0,0,0,0,0,0,0,0,0,1931,0,0,0,0,0,0,0,0,0,
0,0,0,1954,1954,1954,1954,1954,1954,1954,1954,1954,1954,1931,0,0,0,0,0,0,0,0,0,
0,0,0,0,0,0,0,0,0,0,0,0,0,1931,0,0,0,0,0,0,0,0,0,
0,0,0,0,0,0,0,0,0,0,0,0,0,1931,0,0,0,0,0,0,0,0,0,
0,0,0,0,0,0,0,0,0,0,0,0,0,0,0,0,0,0,0,0,0,0,0,
0,0,0,0,0,0,0,0,0,0,0,0,0,0,0,0,0,0,0,0,0,0,0,
0,0,0,0,0,0,0,0,0,0,0,0,0,0,0,0,0,0,0,0,0,0,0
</data>
 </layer>
 <layer id="1" name="Ground" width="23" height="11">
  <data encoding="csv">
279,279,283,254,283,279,283,254,254,283,254,283,254,283,283,283,283,283,283,283,283,283,283,
254,279,254,254,283,279,254,254,283,254,283,279,254,283,283,283,283,283,283,283,283,283,283,
254,279,254,254,279,283,254,254,254,254,279,279,254,283,283,283,283,283,283,283,283,283,283,
254,279,254,279,283,254,279,279,254,254,283,254,254,283,283,283,283,283,283,283,283,283,283,
254,254,254,279,283,254,279,279,254,254,254,283,254,254,283,283,283,283,283,283,283,283,283,
254,254,254,283,283,254,254,254,254,254,254,254,279,254,283,279,283,283,283,283,283,283,283,
254,254,254,254,283,283,254,254,283,283,254,254,279,254,279,279,283,283,283,283,283,283,283,
254,283,254,254,283,254,254,254,279,254,254,254,279,279,279,279,283,283,283,283,283,283,283,
254,279,279,254,254,279,254,254,254,283,254,254,283,254,279,279,283,283,283,283,283,283,283,
254,279,254,279,279,254,254,283,254,279,254,254,254,254,283,279,283,283,283,283,283,283,283,
254,254,254,254,254,283,254,254,283,254,283,254,283,283,283,283,279,283,283,283,283,283,283
</data>
 </layer>
 <layer id="5" name="walls" width="23" height="11">
  <data encoding="csv">
0,0,0,0,0,0,0,0,0,0,0,0,0,0,0,0,0,0,0,0,0,0,0,
0,0,0,0,0,0,0,0,0,0,0,0,0,0,0,0,0,0,0,0,0,0,0,
0,0,0,0,0,0,0,0,0,0,0,0,0,0,0,0,0,0,0,0,0,0,0,
0,0,0,0,0,0,0,0,0,0,0,0,0,0,0,0,0,0,0,0,0,0,0,
0,0,0,0,0,0,0,0,0,0,0,0,0,0,0,0,2044,2044,2044,2044,0,0,0,
0,0,0,0,0,0,0,0,0,0,0,0,0,0,0,2044,2044,2044,2044,2044,2044,2045,0,
0,0,0,0,0,0,0,0,0,0,0,0,0,0,2043,2044,2044,2044,2044,2044,2044,2045,0,
0,0,0,0,0,0,0,0,0,0,0,0,0,0,2043,2044,2044,2044,2044,2044,2044,2045,0,
0,0,0,0,0,0,0,0,0,0,0,0,0,0,2043,2044,2044,2044,2044,2044,2044,2045,0,
0,0,0,0,0,0,0,0,0,0,0,0,0,0,0,0,0,0,0,0,0,0,0,
0,0,0,0,0,0,0,0,0,0,0,0,0,0,0,0,0,0,0,0,0,0,0
</data>
 </layer>
 <layer id="4" name="water" width="23" height="11">
  <data encoding="csv">
0,0,0,0,0,0,0,0,0,0,0,0,0,0,0,0,0,0,0,0,0,0,0,
0,0,0,0,0,0,0,0,0,0,0,0,0,0,0,0,0,0,0,0,0,0,0,
0,0,0,0,0,0,0,0,0,0,0,0,0,0,0,0,0,0,0,0,0,0,0,
0,0,0,0,0,0,0,0,0,0,0,0,0,0,0,0,0,0,0,0,0,0,0,
0,0,0,0,0,0,0,0,0,0,0,0,0,0,0,0,0,0,0,0,0,0,0,
0,0,0,0,0,0,0,0,0,0,0,0,0,0,0,0,0,0,0,0,0,0,0,
0,0,0,0,0,0,0,0,0,0,0,0,0,0,0,0,0,0,0,0,0,0,0,
0,0,0,0,0,0,0,0,0,0,0,0,0,0,0,0,0,0,0,0,0,0,0,
0,0,0,0,0,0,0,0,0,0,0,0,0,0,0,0,0,0,0,0,0,0,0,
0,0,0,0,0,0,0,0,0,0,0,0,0,0,0,0,0,0,0,0,0,0,0,
0,0,0,0,0,0,0,0,0,0,0,0,0,0,0,0,0,0,0,0,0,0,0
</data>
 </layer>
 <layer id="3" name="decor" width="23" height="11">
  <data encoding="csv">
0,0,0,0,0,0,0,0,0,0,0,0,0,0,0,0,0,2529,2530,0,0,0,0,
0,0,0,0,0,0,1552,1553,1553,1553,1553,1553,1554,0,0,2670,2553,2554,2555,2556,2671,0,0,
0,0,0,1576,1553,1553,1577,0,0,0,0,0,1605,0,2694,2695,2578,2579,2580,2581,2696,2697,0,
0,0,0,1601,0,0,0,0,0,0,0,0,1605,2718,2719,2720,2603,2604,2605,2606,2721,2722,2723,
0,0,0,1626,1627,0,0,0,0,0,0,0,1605,2743,2744,2745,2628,2629,2630,2631,2746,2747,2748,
0,0,0,0,1652,1653,1653,1653,1653,1653,1653,1653,1654,2768,2769,2770,0,0,0,0,2771,2772,2773,
0,0,0,0,0,0,0,0,0,0,0,0,0,2793,2794,0,3580,3581,3582,3575,3576,2797,2798,
0,0,0,0,0,0,0,0,0,0,0,0,0,2818,0,0,3618,3619,3620,3613,3614,0,2823,
0,0,0,0,0,0,0,0,0,0,0,0,0,0,0,0,3656,3657,3658,0,0,0,0,
0,0,0,0,0,0,0,0,0,0,0,0,0,0,0,0,0,0,0,0,0,0,0,
0,0,0,0,0,0,0,0,0,0,0,0,0,0,0,0,0,0,0,0,0,0,0
</data>
 </layer>
 <objectgroup id="6" name="doors">
  <object id="1" name="Inside Infirmary" x="266.843" y="119.253" width="27.1566" height="22.4337">
   <properties>
    <property name="TargetName" value="Inside Infirmary"/>
    <property name="spawnx" type="float" value="0.5"/>
    <property name="spawny" type="float" value="0.65"/>
   </properties>
  </object>
 </objectgroup>
</map>
