<?xml version="1.0" encoding="UTF-8"?>
<map version="1.10" tiledversion="1.12.2" orientation="orthogonal" renderorder="right-down" width="23" height="11" tilewidth="16" tileheight="16" infinite="0" nextlayerid="7" nextobjectid="1">
 <tileset firstgid="1" source="../tiles/Dungeon_Tiles.tsx"/>
 <tileset firstgid="626" source="../tiles/Floors_Tiles.tsx"/>
 <tileset firstgid="1276" source="../tiles/Water_tiles.tsx"/>
 <tileset firstgid="1901" source="../tiles/Props.tsx"/>
 <layer id="1" name="collision" width="23" height="11">
  <data encoding="csv">
0,0,0,0,0,0,0,0,0,127,0,0,0,0,0,0,0,0,127,0,0,0,0,
0,0,0,0,0,0,0,0,0,127,0,0,0,0,0,0,0,0,127,0,0,0,0,
0,0,0,0,0,0,0,0,0,82,82,82,82,82,82,82,82,82,82,0,0,0,0,
0,0,0,0,0,0,0,0,0,0,0,0,0,0,0,0,0,0,0,0,0,0,0,
0,0,0,0,0,0,0,0,0,0,0,0,0,0,0,0,0,0,0,0,0,0,0,
0,0,0,0,0,0,0,0,0,0,0,0,0,0,0,0,0,0,0,0,0,0,0,
0,0,0,0,0,0,0,0,0,0,0,0,0,0,0,0,0,0,0,0,0,0,0,
0,0,0,0,0,0,0,0,0,0,0,0,0,0,0,0,0,0,0,0,0,0,0,
0,0,0,0,0,0,0,0,0,0,0,0,0,0,0,0,0,0,0,0,0,1381,1381,
0,0,0,0,0,0,0,0,0,0,0,0,0,0,0,0,1381,1381,0,1381,1381,1381,1381,
0,0,0,0,0,0,0,0,0,0,0,0,0,0,0,1381,1381,1381,1381,1381,1381,1381,1381
</data>
 </layer>
 <layer id="2" name="ground" width="23" height="11">
  <data encoding="csv">
878,904,904,878,878,904,904,878,904,904,259,259,259,259,259,259,259,259,904,904,904,904,904,
878,904,904,904,904,878,878,904,904,904,259,259,259,259,259,259,259,259,904,904,904,904,904,
904,904,878,904,904,904,904,904,878,904,878,878,878,878,878,878,878,878,878,878,904,878,878,
904,904,878,878,878,878,878,878,904,904,878,878,904,904,878,878,878,904,904,904,904,878,878,
1358,878,878,878,878,878,878,878,878,878,878,1354,1358,1359,1360,1390,1396,1358,1359,1334,1334,878,878,
1344,878,878,878,878,878,878,878,878,878,1354,1397,1383,1384,1385,1386,1382,1383,1384,1352,1334,878,878,
1357,1358,1359,878,878,878,878,878,1359,1360,1361,1426,1426,1427,1426,1427,1428,1429,1583,1357,1358,1359,1360,
1382,1383,1384,1378,1378,1358,1359,1360,1378,1385,1386,1426,1427,1428,1429,1583,1583,1583,1583,1382,1383,1384,1385,
1426,1427,1428,1429,1430,1383,1384,1385,1426,1426,1583,1454,1454,1583,1428,1583,1583,1583,1455,1430,1430,1430,1381,
1451,1452,1453,1454,1455,1430,1430,1430,1430,1454,1583,1583,1583,1583,1583,1583,1583,1583,1455,1455,1455,1381,1381,
1451,1452,1453,1454,1455,1455,1455,1455,1455,1583,1583,1455,1455,1455,1455,1455,1455,1455,1452,1453,1381,1381,1381
</data>
 </layer>
 <layer id="4" name="water" width="23" height="11">
  <data encoding="csv">
0,0,0,0,0,0,0,0,0,0,0,0,0,0,0,0,0,0,0,0,0,0,0,
0,0,0,0,0,0,0,0,0,0,0,0,0,0,0,0,0,0,0,0,0,0,0,
0,0,0,0,0,0,0,0,0,0,0,0,0,0,0,0,0,0,0,0,0,0,0,
0,0,0,0,0,0,0,0,0,0,0,0,0,0,0,0,0,0,0,0,0,0,0,
0,0,0,0,0,0,0,0,0,0,0,0,0,0,0,0,0,0,0,0,0,0,0,
0,0,0,0,0,0,0,0,0,0,0,0,0,0,0,0,0,0,0,0,0,0,0,
0,0,0,0,0,0,0,0,0,0,0,0,0,0,0,0,0,0,0,0,0,0,0,
0,0,0,0,0,0,0,0,0,0,0,0,0,0,0,0,0,0,0,0,0,0,0,
0,0,0,0,0,0,0,0,0,0,0,0,0,0,0,0,0,0,0,0,0,0,0,
0,0,0,0,0,0,0,0,0,0,0,0,0,0,0,0,0,0,0,0,0,0,0,
0,0,0,0,0,0,0,0,0,0,0,0,0,0,0,0,0,0,0,0,0,0,0
</data>
 </layer>
 <layer id="3" name="walls" width="23" height="11">
  <data encoding="csv">
0,0,0,0,0,0,0,0,0,2226,0,0,0,0,0,0,0,0,2230,0,0,0,0,
0,0,0,0,0,0,0,0,0,2251,2252,0,0,0,0,0,2254,2178,2255,0,0,0,0,
0,0,0,0,0,0,0,0,0,0,2277,2178,2178,2178,2178,2178,2279,0,0,0,0,0,0,
0,0,0,0,0,0,0,0,0,0,0,0,0,0,0,0,0,0,0,0,0,0,0,
0,0,0,0,0,0,0,0,0,0,0,0,0,0,0,0,0,0,0,0,0,0,0,
0,0,0,0,0,0,0,0,0,0,0,0,0,0,0,0,0,0,0,0,0,0,0,
0,0,0,0,0,0,0,0,0,0,0,0,0,0,0,0,0,0,0,0,0,0,0,
0,0,0,0,0,0,0,0,0,0,0,0,0,0,0,0,0,0,0,0,0,0,0,
0,0,0,0,0,0,0,0,0,0,0,0,0,0,0,0,0,0,0,0,0,0,0,
0,0,0,0,0,0,0,0,0,0,0,0,0,0,0,0,0,0,0,0,0,0,0,
0,0,0,0,0,0,0,0,0,0,0,0,0,0,0,0,0,0,0,0,0,0,0
</data>
 </layer>
 <layer id="5" name="decor" width="23" height="11">
  <data encoding="csv">
0,0,0,0,0,0,0,0,0,0,0,0,0,0,0,0,0,0,0,0,0,0,0,
0,0,0,0,0,0,0,0,0,0,0,0,0,0,0,0,0,0,0,0,0,0,0,
0,0,0,0,0,0,0,0,0,0,0,0,0,0,0,0,0,0,0,0,0,0,0,
0,0,0,0,0,0,0,0,0,0,0,0,0,0,0,0,0,0,0,0,0,0,0,
0,0,0,0,0,0,0,0,0,0,0,0,0,0,0,0,0,0,0,0,0,0,0,
0,0,0,0,0,0,0,0,0,0,0,0,0,0,0,0,0,0,0,0,0,0,0,
0,0,0,0,0,0,0,0,0,0,0,0,0,0,0,0,0,0,0,0,0,0,0,
0,0,0,0,0,0,0,0,0,0,0,0,0,0,0,0,0,0,0,0,0,0,0,
0,0,0,0,0,0,0,0,0,0,0,0,0,0,0,0,0,0,0,0,0,0,0,
0,0,0,0,0,0,0,0,0,0,0,0,0,0,0,0,0,0,0,0,0,0,0,
0,0,0,0,0,0,0,0,0,0,0,0,0,0,0,0,0,0,0,0,0,0,0
</data>
 </layer>
 <objectgroup id="6" name="doors"/>
</map>
