<?xml version="1.0" encoding="UTF-8"?>
<map version="1.10" tiledversion="1.12.2" orientation="orthogonal" renderorder="right-down" width="23" height="11" tilewidth="16" tileheight="16" infinite="0" nextlayerid="9" nextobjectid="3">
 <tileset firstgid="1" source="../tiles/Floors_Tiles.tsx"/>
 <tileset firstgid="651" source="../tiles/Wall_Tiles.tsx"/>
 <tileset firstgid="1276" source="../tiles/Dungeon_Tiles.tsx"/>
 <layer id="2" name="Collision" width="23" height="11">
  <data encoding="csv">
688,689,690,691,692,693,789,790,791,792,793,0,0,0,0,0,0,763,764,765,766,767,768,
713,714,715,716,717,718,814,815,816,817,818,0,0,0,0,0,0,788,789,790,791,792,793,
738,739,740,741,742,743,839,840,841,842,843,0,0,0,0,0,0,813,814,815,816,817,818,
763,764,765,766,767,768,864,865,866,867,868,0,0,0,0,0,0,838,839,840,841,842,843,
788,789,790,791,792,793,889,890,891,892,893,0,0,0,0,0,0,863,864,865,866,867,868,
813,814,815,816,817,818,0,0,0,0,0,0,0,0,0,0,0,888,889,890,891,892,893,
838,839,840,841,842,843,0,0,0,0,0,0,0,0,0,0,0,0,0,0,0,0,0,
863,864,865,866,867,868,0,0,0,0,0,0,0,0,0,0,0,0,0,0,0,0,0,
888,889,890,891,892,893,0,0,0,0,0,0,0,0,0,0,0,0,0,0,0,0,0,
0,0,0,0,0,0,0,0,0,0,0,0,0,0,0,0,0,0,0,0,0,0,0,
0,0,0,0,0,0,0,0,0,0,0,0,0,0,0,0,0,0,0,0,0,0,0
</data>
 </layer>
 <layer id="1" name="Ground" width="23" height="11">
  <data encoding="csv">
284,284,284,278,278,278,278,278,278,254,278,278,278,278,278,278,278,278,278,284,284,284,284,
284,284,278,278,278,254,254,254,278,254,254,254,254,278,254,254,254,254,254,278,284,284,284,
278,278,254,254,254,278,278,254,254,254,254,254,278,254,254,278,254,254,254,278,278,278,284,
254,254,254,278,278,254,278,278,254,254,254,278,254,254,254,254,254,278,254,254,254,254,254,
254,278,278,284,254,254,254,254,254,278,278,254,254,254,278,278,254,254,254,254,254,278,254,
254,254,284,284,254,254,278,284,254,254,254,254,278,254,278,254,254,254,278,254,254,278,254,
278,254,254,254,254,278,284,284,254,254,254,278,254,254,254,254,278,278,278,254,254,278,254,
278,278,254,254,278,278,254,254,254,278,254,278,254,254,254,254,254,254,254,254,254,254,254,
278,254,278,254,254,254,254,254,254,278,254,278,254,254,254,254,278,278,254,254,254,254,284,
254,254,278,254,254,254,254,254,284,278,254,254,254,254,278,254,254,254,254,254,278,284,284,
254,254,254,278,254,254,278,254,284,284,284,278,278,278,278,278,278,254,278,284,284,284,284
</data>
 </layer>
 <layer id="3" name="Walls" width="23" height="11">
  <data encoding="csv">
838,839,840,841,842,843,788,815,816,817,818,0,0,0,0,0,0,788,789,790,791,792,793,
813,814,815,816,817,818,813,840,841,842,843,0,0,0,0,0,0,788,814,815,816,817,793,
838,839,840,841,842,843,838,839,840,842,843,0,0,0,0,0,0,813,814,815,841,817,818,
813,814,815,816,817,818,863,864,865,867,868,0,0,0,0,0,0,838,839,840,841,842,843,
838,839,841,839,841,843,0,889,890,892,0,0,0,0,0,0,0,863,864,865,866,867,868,
813,814,815,816,817,818,0,0,0,0,0,0,0,0,0,0,0,0,889,890,891,892,0,
838,839,840,841,842,843,0,0,0,0,0,0,0,0,0,0,0,0,0,0,0,0,0,
838,839,840,841,842,843,0,0,0,0,0,0,0,0,0,0,0,0,0,0,0,0,0,
1013,1014,1015,1016,1017,1018,0,0,0,0,0,0,0,0,1311,0,0,0,0,0,0,0,0,
0,1039,1040,1041,1042,0,0,0,0,0,0,0,0,0,1311,0,0,0,0,0,0,0,0,
0,0,0,0,0,0,0,0,0,0,0,0,0,0,0,0,0,0,0,0,0,0,0
</data>
 </layer>
 <layer id="4" name="Water" width="23" height="11">
  <data encoding="csv">
1338,0,0,0,1338,1338,1338,0,0,0,1338,1288,0,0,0,0,1413,1338,0,0,0,0,1338,
1338,0,0,0,0,1338,1338,0,0,0,1338,0,0,0,0,0,1413,1338,0,0,0,0,1338,
1338,0,0,0,0,1338,1338,0,0,0,0,0,0,0,0,0,0,0,0,0,0,0,0,
1338,0,0,0,0,1338,0,0,0,0,1288,0,0,1288,1288,0,0,0,0,0,0,0,0,
1338,0,0,0,0,0,0,0,0,0,1288,0,1288,0,1288,1288,1288,1288,0,0,0,0,0,
0,0,0,0,0,0,0,0,0,1288,0,0,1288,0,1288,0,1288,1288,0,0,0,0,0,
0,0,0,0,0,0,0,0,0,0,0,0,0,0,0,0,1288,0,1287,0,0,0,0,
0,0,0,0,0,0,0,0,0,0,0,1287,1287,0,0,0,1288,1287,1287,1288,0,0,0,
0,0,0,0,0,0,1288,0,1287,0,1288,0,0,0,0,0,0,1287,0,1288,0,0,0,
0,0,1288,1288,0,1288,0,1287,0,0,1287,1287,0,0,1287,1288,0,0,0,0,1287,1287,1288,
1288,1288,1288,0,1288,0,1287,0,0,0,0,1287,0,0,0,0,1287,1287,1287,1287,1287,1287,1288
</data>
 </layer>
 <layer id="8" name="Decor" width="23" height="11">
  <data encoding="csv">
0,0,0,0,0,0,0,0,0,0,0,0,0,0,0,0,0,0,0,0,1485,0,0,
0,0,0,0,0,0,0,0,0,0,0,0,0,0,0,0,0,0,814,815,1485,0,0,
0,0,0,0,0,0,0,0,0,0,0,0,0,0,0,0,0,0,0,0,1485,0,0,
0,0,0,0,0,0,0,0,0,0,0,0,0,0,0,0,0,0,0,0,1485,0,0,
0,0,0,0,0,0,0,0,0,0,0,0,0,0,0,0,0,0,0,0,1485,0,0,
0,0,0,0,0,0,0,0,0,0,0,0,0,0,0,0,0,0,0,0,1485,0,0,
0,0,0,0,0,0,0,0,0,0,0,0,0,0,0,0,0,0,0,0,0,0,0,
0,0,0,0,0,0,0,0,0,0,0,0,0,0,0,0,0,0,0,0,0,0,0,
0,0,0,0,0,0,0,0,0,0,0,0,0,0,0,0,0,0,0,0,0,0,0,
0,0,0,0,0,0,0,0,0,0,0,0,0,0,0,0,0,0,0,0,0,0,0,
0,0,0,0,0,0,0,0,0,0,0,0,0,0,0,0,0,0,0,0,0,0,0
</data>
 </layer>
 <objectgroup id="7" name="doors">
  <object id="1" name="the tree house" x="312.913" y="58.1798" width="31.763" height="40.5686">
   <properties>
    <property name="spawnx" type="float" value="0.5"/>
    <property name="spawny" type="float" value="0.5"/>
    <property name="targetName" value="the tree house"/>
   </properties>
  </object>
  <object id="2" x="428.958" y="240.267" height="0.943456"/>
 </objectgroup>
</map>
