<?xml version="1.0" encoding="UTF-8"?>
<map version="1.10" tiledversion="1.12.2" orientation="orthogonal" renderorder="right-down" width="23" height="11" tilewidth="16" tileheight="16" infinite="0" nextlayerid="8" nextobjectid="1">
 <tileset firstgid="1" source="../../../../../../Floors_Tiles.tsx"/>
 <tileset firstgid="651" source="../../../../../../Dungeon_Tiles.tsx"/>
 <tileset firstgid="1276" source="../../../../../../Wall_Tiles.tsx"/>
 <layer id="5" name="collision" class="collision" width="23" height="11">
  <data encoding="csv">
0,0,0,0,0,0,0,0,0,0,0,0,0,0,0,0,0,0,0,0,0,0,0,
0,0,0,0,0,0,0,0,0,0,0,0,0,0,0,0,0,0,0,0,0,0,0,
0,0,0,0,0,0,0,0,0,0,0,0,0,0,0,0,0,0,0,0,0,0,0,
0,0,0,0,0,0,0,0,0,0,0,0,0,0,0,0,0,0,0,0,0,0,0,
0,0,0,0,0,0,0,0,0,0,0,0,0,0,0,0,0,0,0,0,0,0,0,
0,0,0,0,0,0,0,0,0,0,0,0,0,0,0,0,0,0,0,0,0,0,0,
0,0,0,0,0,0,0,0,0,0,0,0,0,0,0,0,0,0,0,0,0,0,0,
0,0,0,0,0,0,0,0,0,0,0,0,0,0,0,0,0,0,0,0,0,0,0,
0,0,0,0,0,0,0,0,0,0,0,0,0,0,0,0,0,0,0,0,0,0,0,
0,0,0,0,0,0,0,0,0,0,0,0,0,0,0,0,0,0,0,0,0,0,0,
0,0,0,0,0,0,0,0,0,0,0,0,0,0,0,0,0,0,0,0,0,0,0
</data>
 </layer>
 <layer id="1" name="ground" width="23" height="11">
  <data encoding="csv">
254,254,254,254,254,254,278,278,278,278,278,278,278,278,278,278,278,278,278,278,278,278,278,
254,278,278,278,278,278,278,278,278,278,278,278,254,278,278,252,252,252,252,252,278,278,278,
254,278,278,278,278,278,278,278,278,278,278,278,277,277,277,252,279,278,278,278,278,277,278,
254,278,278,278,278,278,278,254,278,278,277,277,277,278,277,277,277,278,278,254,278,277,278,
278,278,278,278,278,278,278,278,278,277,277,278,278,278,252,279,277,278,277,277,277,277,278,
254,254,254,278,278,278,252,278,277,277,278,254,278,278,252,252,277,252,252,277,277,252,278,
254,289,254,278,278,278,252,263,277,278,278,278,278,252,252,252,252,279,278,278,278,252,278,
289,289,254,278,254,278,252,252,277,277,277,279,277,277,277,277,252,279,254,278,278,278,278,
252,279,252,252,252,252,252,252,252,252,279,279,279,279,279,279,279,279,252,252,279,279,252,
279,279,279,279,279,279,252,252,252,252,279,279,279,279,279,252,279,279,279,252,252,252,252,
279,279,279,252,252,279,279,279,279,279,279,279,279,279,279,279,279,252,279,279,279,279,279
</data>
 </layer>
 <layer id="2" name="walls" width="23" height="11">
  <data encoding="csv">
0,77,77,0,29,77,77,812,29,29,29,29,812,0,77,29,0,0,812,0,77,202,739,
812,77,77,29,77,202,29,0,29,0,29,812,77,77,29,0,0,77,77,77,29,202,661,
77,29,812,77,1465,0,129,77,0,0,812,0,0,0,29,77,77,812,77,77,29,202,739,
29,77,77,1465,756,1465,0,29,0,29,29,29,0,29,29,1465,0,77,77,29,812,0,661,
812,0,1465,783,783,783,1465,0,29,77,77,812,77,29,1465,757,1465,77,812,77,77,202,739,
0,1465,1442,781,781,781,1442,1465,0,812,77,812,0,1465,783,783,783,1465,786,0,0,0,739,
29,0,29,812,812,77,662,0,77,77,813,812,1465,1465,781,782,781,1465,1465,812,0,202,812,
0,812,0,0,29,77,77,812,812,739,739,29,29,661,29,739,29,202,202,661,29,0,202,
662,662,0,0,662,662,29,662,29,29,662,29,662,0,29,662,29,662,29,29,29,0,662,
29,29,0,0,29,29,662,0,0,0,0,0,0,0,662,29,0,0,29,662,29,662,662,
662,29,29,29,662,29,662,29,29,29,662,29,662,662,29,662,29,29,662,662,29,29,662
</data>
 </layer>
 <layer id="3" name="water" width="23" height="11">
  <data encoding="csv">
0,0,0,0,0,0,0,0,0,0,0,0,0,0,0,0,0,0,0,0,0,0,0,
0,0,0,0,0,0,0,0,0,0,0,0,0,0,0,0,0,0,0,0,0,0,0,
0,0,0,0,0,0,0,0,0,0,0,0,0,0,0,0,0,0,0,0,0,0,0,
0,0,0,0,0,0,0,0,0,0,0,0,0,0,0,0,0,0,0,0,0,0,0,
0,0,0,0,0,0,0,0,0,0,0,0,0,0,0,0,0,0,0,0,0,0,0,
0,0,0,0,0,0,0,0,0,0,0,0,0,0,0,0,0,0,0,0,0,0,0,
0,0,0,0,0,0,0,0,0,0,0,0,0,0,0,0,0,0,0,0,0,0,0,
0,0,0,0,0,0,0,0,0,0,0,0,0,0,0,0,0,0,0,0,0,0,0,
0,0,0,0,0,0,0,0,0,0,0,0,0,0,0,0,0,0,0,0,0,0,0,
0,0,0,0,0,0,0,0,0,0,0,0,0,0,0,0,0,0,0,0,0,0,0,
0,0,0,0,0,0,0,0,0,0,0,0,0,0,0,0,0,0,0,0,0,0,0
</data>
 </layer>
 <layer id="4" name="decor" width="23" height="11" visible="0">
  <data encoding="csv">
0,0,0,0,0,0,0,0,0,0,0,0,0,0,0,0,0,0,0,0,0,0,0,
0,0,0,0,0,0,0,0,0,0,0,0,0,0,0,0,0,0,0,0,0,0,0,
0,0,0,0,0,0,0,0,0,0,0,0,0,0,0,0,0,0,0,0,0,0,0,
0,0,0,0,0,0,0,0,0,0,0,0,0,0,0,0,0,0,0,0,0,0,0,
0,0,0,0,0,0,0,0,0,0,0,0,0,0,0,0,0,0,0,0,0,0,0,
0,0,0,0,0,0,0,0,0,0,0,0,0,0,0,0,0,0,0,0,0,0,0,
0,0,0,0,0,0,0,0,0,0,0,0,0,0,0,0,0,0,0,0,0,0,0,
0,0,0,0,0,0,0,0,0,0,0,0,0,0,0,0,0,0,0,0,0,0,0,
0,0,0,0,0,0,0,0,0,0,0,0,0,0,0,0,0,0,0,0,0,0,0,
0,0,0,0,0,0,0,0,0,0,0,0,0,0,0,0,0,0,0,0,0,0,0,
0,0,0,0,0,0,0,0,0,0,0,0,0,0,0,0,0,0,0,0,0,0,0
</data>
 </layer>
 <objectgroup id="7" name="Objects" visible="0"/>
</map>
