<?xml version="1.0" encoding="UTF-8"?>
<map version="1.10" tiledversion="1.12.2" orientation="orthogonal" renderorder="right-down" width="23" height="11" tilewidth="16" tileheight="16" infinite="0" nextlayerid="8" nextobjectid="2">
 <tileset firstgid="1" source="../tiles/Dungeon_Tiles.tsx"/>
 <tileset firstgid="626" source="../tiles/Floors_Tiles.tsx"/>
 <tileset firstgid="1276" source="../tiles/Props.tsx"/>
 <layer id="1" name="collision" width="23" height="11">
  <data encoding="csv">
0,0,0,0,0,0,0,0,0,0,0,0,0,0,0,0,0,0,0,0,0,0,0,
0,0,0,0,0,0,0,0,0,0,0,0,0,0,0,0,0,0,0,0,0,0,0,
0,0,0,0,0,0,0,0,0,0,0,0,0,0,0,0,0,0,0,0,0,0,0,
0,0,0,0,0,0,0,0,0,0,0,0,0,0,0,0,0,0,0,0,0,0,0,
0,0,0,0,0,0,0,0,0,0,0,0,0,0,0,0,0,0,0,0,0,0,0,
0,0,0,0,0,0,0,0,0,0,0,0,0,0,0,0,0,0,0,0,0,0,0,
0,0,0,0,0,0,0,0,0,1377,1377,1377,1377,1377,1377,0,0,1377,1377,0,0,0,0,
0,0,0,0,0,0,0,0,0,1377,0,0,0,0,0,0,0,0,1377,0,0,0,0,
0,0,0,0,0,0,0,0,0,1377,0,0,0,0,0,0,0,0,1377,0,0,0,0,
0,0,0,0,0,0,0,0,0,1377,0,0,0,0,0,0,0,0,1377,0,0,0,0,
0,0,0,0,0,0,0,0,0,1377,0,0,0,0,0,0,0,0,1377,0,0,0,0
</data>
 </layer>
 <layer id="7" name="ground" width="23" height="11">
  <data encoding="csv">
879,879,879,879,883,883,883,883,883,883,883,879,879,879,879,879,879,904,904,879,879,879,879,
879,883,879,879,879,883,883,883,879,879,879,908,908,908,908,908,904,904,904,904,908,879,908,
879,883,879,883,879,879,879,879,883,883,883,879,879,908,908,908,904,904,904,904,904,879,879,
879,879,883,883,883,879,879,883,883,883,883,883,883,879,908,908,904,904,908,908,904,908,879,
879,883,883,879,879,879,879,883,883,883,879,879,879,879,879,879,879,879,879,879,879,879,879,
879,883,879,879,883,883,879,883,879,879,879,883,879,883,879,879,908,908,908,908,908,908,879,
879,879,879,883,883,879,883,879,883,883,879,879,879,883,879,879,908,904,904,904,904,904,879,
879,879,879,879,879,879,879,883,883,883,259,259,259,259,259,259,259,259,908,908,908,904,879,
879,879,879,879,879,883,879,879,883,879,259,259,259,259,259,259,259,259,904,904,908,904,879,
879,879,883,879,879,879,879,879,879,879,259,259,259,259,259,308,308,259,908,908,908,908,879,
879,883,879,879,883,883,883,883,883,883,259,259,259,259,259,259,259,259,879,879,879,879,879
</data>
 </layer>
 <layer id="3" name="walls" width="23" height="11">
  <data encoding="csv">
0,0,0,0,0,0,0,0,0,0,0,0,0,0,0,0,0,0,0,0,0,0,0,
0,0,0,0,0,0,0,0,0,0,0,0,0,0,0,0,0,0,0,0,0,0,0,
0,0,0,0,0,0,0,0,0,0,0,0,0,0,0,0,0,0,0,0,0,0,0,
0,0,0,0,0,0,0,0,0,0,0,0,0,0,0,0,0,0,0,0,0,0,0,
0,0,0,0,0,0,0,0,0,0,0,0,0,0,0,0,0,0,0,0,0,0,0,
0,0,0,0,0,0,0,0,0,0,0,0,0,0,0,0,0,0,0,0,0,0,0,
0,0,0,0,0,0,0,0,0,1552,1553,1553,1553,1553,1553,1554,1552,1553,1580,0,0,0,0,
0,0,0,0,0,0,0,0,0,1601,0,0,0,0,0,0,0,1604,1605,0,0,0,0,
0,0,0,0,0,0,0,0,0,1601,0,0,0,0,0,0,0,0,1605,0,0,0,0,
0,0,0,0,0,0,0,0,0,1601,0,0,0,0,0,0,0,0,1605,0,0,0,0,
0,0,0,0,0,0,0,0,0,1601,0,0,0,0,0,0,0,0,1605,0,0,0,0
</data>
 </layer>
 <layer id="4" name="water" width="23" height="11">
  <data encoding="csv">
0,0,0,0,0,0,0,0,0,0,0,0,0,0,0,0,0,0,0,0,0,0,0,
0,0,0,0,0,0,0,0,0,0,0,0,0,0,0,0,0,0,0,0,0,0,0,
0,0,0,0,0,0,0,0,0,0,0,0,0,0,0,0,0,0,0,0,0,0,0,
0,0,0,0,0,0,0,0,0,0,0,0,0,0,0,0,0,0,0,0,0,0,0,
0,0,0,0,0,0,0,0,0,0,0,0,0,0,0,0,0,0,0,0,0,0,0,
0,0,0,0,0,0,0,0,0,0,0,0,0,0,0,0,0,0,0,0,0,0,0,
0,0,0,0,0,0,0,0,0,0,0,0,0,0,0,0,0,0,0,0,0,0,0,
0,0,0,0,0,0,0,0,0,0,0,0,0,0,0,0,0,0,0,0,0,0,0,
0,0,0,0,0,0,0,0,0,0,0,0,0,0,0,0,0,0,0,0,0,0,0,
0,0,0,0,0,0,0,0,0,0,0,0,0,0,0,0,0,0,0,0,0,0,0,
0,0,0,0,0,0,0,0,0,0,0,0,0,0,0,0,0,0,0,0,0,0,0
</data>
 </layer>
 <layer id="6" name="decor" width="23" height="11">
  <data encoding="csv">
0,0,0,0,0,0,0,0,0,0,0,0,0,0,0,0,0,0,0,0,0,0,0,
0,0,0,0,0,0,0,0,0,0,0,0,0,0,0,0,0,0,0,0,0,0,0,
0,0,0,0,0,0,0,0,0,0,0,0,0,0,0,0,0,0,0,0,0,0,0,
0,0,0,0,0,0,0,0,0,0,0,0,0,0,0,0,0,0,0,0,0,0,0,
0,0,0,0,0,0,0,0,0,0,0,0,0,0,0,0,0,0,0,0,0,0,0,
0,0,0,0,0,0,0,0,0,0,0,0,0,0,0,0,0,0,0,0,0,0,0,
0,0,0,0,0,0,0,0,0,0,0,0,0,0,0,0,0,0,0,0,0,0,0,
0,0,0,0,0,0,0,0,0,0,0,0,0,0,0,0,0,0,0,0,0,0,0,
0,0,0,0,0,0,0,0,0,0,0,0,0,0,0,158,159,0,0,0,0,0,0,
0,0,0,0,0,0,0,0,0,0,0,0,0,0,0,183,184,0,0,0,0,0,0,
0,0,0,0,0,0,0,0,0,0,0,0,0,0,0,0,0,0,0,0,0,0,0
</data>
 </layer>
 <objectgroup id="2" name="doors">
  <object id="1" name="The Cage" x="240.187" y="129.958" width="15.0313" height="27.8705">
   <properties>
    <property name="spawnx" type="float" value="0.71"/>
    <property name="spawny" type="float" value="0.4"/>
    <property name="targetName" value="The Cage"/>
   </properties>
  </object>
 </objectgroup>
</map>
