<?xml version="1.0" encoding="UTF-8"?>
<map version="1.10" tiledversion="1.12.2" orientation="orthogonal" renderorder="right-down" width="23" height="11" tilewidth="16" tileheight="16" infinite="0" nextlayerid="7" nextobjectid="3">
 <tileset firstgid="1" source="../tiles/Dungeon_Tiles.tsx"/>
 <layer id="1" name="collision" width="23" height="11">
  <data encoding="csv">
505,505,505,505,505,505,505,505,505,505,505,505,505,505,505,505,505,505,505,505,505,505,505,
505,505,505,505,505,505,505,0,0,0,0,0,0,0,0,505,505,505,505,505,505,505,505,
505,505,505,505,505,505,505,0,0,0,0,0,0,0,0,505,505,505,505,505,505,505,505,
505,505,505,505,505,505,505,0,0,0,0,0,0,0,0,0,505,505,505,505,505,505,505,
505,505,505,505,505,505,505,0,0,0,0,0,0,0,0,0,505,505,505,505,505,505,505,
505,505,505,505,505,505,505,0,0,0,0,0,0,0,0,0,505,505,505,505,505,505,505,
505,505,505,505,505,505,505,503,503,503,503,503,503,503,503,503,505,505,505,505,505,505,505,
505,505,505,505,505,505,505,505,505,505,505,505,505,503,503,503,505,505,505,505,505,505,505,
505,505,505,505,505,505,505,505,505,505,505,505,505,505,505,505,505,505,505,505,505,505,505,
505,505,505,505,505,505,505,505,505,505,505,505,505,505,505,505,505,505,505,505,505,505,505,
505,505,505,505,505,505,505,505,505,505,505,505,505,505,505,505,505,505,505,505,505,505,505
</data>
 </layer>
 <layer id="6" name="decor" width="23" height="11" visible="0">
  <data encoding="csv">
0,0,0,0,0,0,0,0,0,0,0,0,0,0,0,0,0,0,0,0,0,0,0,
0,0,0,0,0,0,0,0,0,0,0,0,0,0,0,0,0,0,0,0,0,0,0,
0,0,0,0,0,0,0,0,0,0,0,0,0,0,0,0,0,0,0,0,0,0,0,
0,0,0,0,0,0,0,0,0,0,0,0,0,0,0,0,0,0,0,0,0,0,0,
0,0,0,0,0,0,0,0,0,0,0,0,0,0,0,0,0,0,0,0,0,0,0,
0,0,0,0,0,0,0,0,0,0,0,0,0,0,0,0,0,0,0,0,0,0,0,
0,0,0,0,0,0,0,0,0,0,0,0,0,0,0,0,0,0,0,0,0,0,0,
0,0,0,0,0,0,0,0,0,0,0,0,0,0,0,0,0,0,0,0,0,0,0,
0,0,0,0,0,0,0,0,0,0,0,0,0,0,0,0,0,0,0,0,0,0,0,
0,0,0,0,0,0,0,0,0,0,0,0,0,0,0,0,0,0,0,0,0,0,0,
0,0,0,0,0,0,0,0,0,0,0,0,0,0,0,0,0,0,0,0,0,0,0
</data>
 </layer>
 <layer id="4" name="water" width="23" height="11" visible="0">
  <data encoding="csv">
0,0,0,0,0,0,0,0,0,0,0,0,0,0,0,0,0,0,0,0,0,0,0,
0,0,0,0,0,0,0,0,0,0,0,0,0,0,0,0,0,0,0,0,0,0,0,
0,0,0,0,0,0,0,0,0,0,0,0,0,0,0,0,0,0,0,0,0,0,0,
0,0,0,0,0,0,0,0,0,0,0,0,0,0,0,0,0,0,0,0,0,0,0,
0,0,0,0,0,0,0,0,0,0,0,0,0,0,0,0,0,0,0,0,0,0,0,
0,0,0,0,0,0,0,0,0,0,0,0,0,0,0,0,0,0,0,0,0,0,0,
0,0,0,0,0,0,0,0,0,0,0,0,0,0,0,0,0,0,0,0,0,0,0,
0,0,0,0,0,0,0,0,0,0,0,0,0,0,0,0,0,0,0,0,0,0,0,
0,0,0,0,0,0,0,0,0,0,0,0,0,0,0,0,0,0,0,0,0,0,0,
0,0,0,0,0,0,0,0,0,0,0,0,0,0,0,0,0,0,0,0,0,0,0,
0,0,0,0,0,0,0,0,0,0,0,0,0,0,0,0,0,0,0,0,0,0,0
</data>
 </layer>
 <layer id="5" name="ground" width="23" height="11" visible="0">
  <data encoding="csv">
0,0,0,0,0,0,76,77,77,77,77,77,77,77,77,77,78,0,0,0,0,0,0,
0,0,0,0,0,0,130,231,231,452,231,231,231,452,231,231,129,0,0,0,0,0,0,
0,0,0,0,0,0,130,80,476,477,478,80,476,477,478,80,129,0,0,0,0,0,0,
0,0,0,0,0,0,130,31,501,502,503,31,501,502,503,31,129,0,0,0,0,0,0,
0,0,0,0,0,0,130,31,526,527,528,31,526,527,528,31,129,0,0,0,0,0,0,
0,0,0,0,0,0,130,31,31,31,31,31,31,31,31,31,129,0,0,0,0,0,0,
0,0,0,0,0,0,130,31,31,31,31,31,31,31,31,31,129,0,0,0,0,0,0,
0,0,0,0,0,0,101,102,102,102,102,102,102,102,102,102,103,0,0,0,0,0,0,
0,0,0,0,0,0,126,127,127,127,127,127,127,127,127,127,128,0,0,0,0,0,0,
0,0,0,0,0,0,151,151,151,151,151,152,153,153,153,153,153,0,0,0,0,0,0,
0,0,0,0,0,0,0,0,0,0,0,0,0,0,0,0,0,0,0,0,0,0,0
</data>
 </layer>
 <layer id="3" name="walls" width="23" height="11" visible="0">
  <data encoding="csv">
0,0,0,0,0,0,0,0,0,0,0,0,0,0,0,185,0,0,0,0,0,0,0,
0,0,0,0,0,0,0,0,0,0,0,0,0,0,0,210,0,0,0,0,0,0,0,
0,0,0,0,0,0,0,0,0,0,0,0,0,0,0,235,0,0,0,0,0,0,0,
0,0,0,0,0,0,0,0,0,0,0,0,0,0,0,260,0,0,0,0,0,0,0,
0,0,0,0,0,0,0,0,0,0,0,0,0,0,0,0,0,0,0,0,0,0,0,
0,0,0,0,0,0,0,109,0,0,0,0,0,0,0,0,0,0,0,0,0,0,0,
0,0,0,0,0,0,0,109,134,0,0,0,0,0,0,0,0,0,0,0,0,0,0,
0,0,0,0,0,0,0,0,0,0,0,0,0,0,0,0,0,0,0,0,0,0,0,
0,0,0,0,0,0,0,0,0,0,0,0,0,0,0,0,0,0,0,0,0,0,0,
0,0,0,0,0,0,0,0,0,0,0,0,0,0,0,0,0,0,0,0,0,0,0,
0,0,0,0,0,0,0,0,0,0,0,0,0,0,0,0,0,0,0,0,0,0,0
</data>
 </layer>
 <objectgroup id="2" name="doors">
  <object id="1" name="The Glade" x="240.973" y="17.3935" width="14.857" height="39.4978">
   <properties>
    <property name="spawnx" type="float" value="0.65"/>
    <property name="spawny" type="float" value="0.7"/>
    <property name="targetName" value="The Hollow"/>
   </properties>
  </object>
 </objectgroup>
</map>
