<?xml version="1.0" encoding="UTF-8"?>
<map version="1.10" tiledversion="1.12.2" orientation="orthogonal" renderorder="right-down" width="23" height="11" tilewidth="16" tileheight="16" infinite="0" nextlayerid="7" nextobjectid="2">
 <tileset firstgid="1" source="../tiles/Water_tiles.tsx"/>
 <tileset firstgid="626" source="../tiles/Dungeon_Tiles.tsx"/>
 <tileset firstgid="1251" source="../tiles/Interior_Props_01.tsx"/>
 <layer id="1" name="Collisions" width="23" height="11">
  <data encoding="csv">
0,0,0,0,0,0,0,0,0,0,0,0,0,0,0,0,0,0,0,0,0,0,0,
0,1295,1295,1295,1295,1295,1295,1295,1295,1295,1295,1295,1295,1295,1295,1295,1295,1295,1295,1295,1295,1295,0,
0,1295,0,0,0,0,0,0,0,0,0,0,0,0,0,0,0,0,0,0,0,0,0,
0,1295,0,0,0,0,0,0,0,0,0,0,0,0,0,0,0,0,0,0,1295,0,0,
0,0,0,0,0,0,0,0,0,0,1295,0,0,0,0,0,0,0,0,0,0,0,0,
0,0,1295,1295,0,1295,0,1295,0,1295,1295,0,0,0,0,0,0,0,0,0,0,0,0,
0,0,1295,1295,1295,1295,1295,1295,0,1295,1295,0,0,0,0,0,0,0,0,0,0,0,0,
0,0,1295,1295,1295,0,1295,1295,1295,1295,1295,0,0,0,0,0,0,0,0,0,0,0,0,
0,0,0,0,1295,0,1295,1295,1295,1295,0,0,0,0,0,0,0,0,0,0,1295,0,0,
0,0,0,0,0,0,0,0,1295,0,0,0,0,0,0,0,0,0,0,0,0,0,0,
0,0,0,0,0,0,0,0,0,0,0,0,0,0,0,0,0,0,0,0,0,0,0
</data>
 </layer>
 <layer id="2" name="ground" width="23" height="11">
  <data encoding="csv">
640,641,641,641,641,641,641,641,641,641,641,641,641,641,641,641,641,641,641,641,641,641,642,
665,643,644,644,644,644,644,644,644,644,644,644,644,644,644,644,644,644,644,644,644,645,667,
665,668,715,715,715,715,715,715,715,715,715,715,766,691,691,715,715,715,715,766,766,670,667,
665,668,715,715,715,715,715,715,715,715,691,691,691,691,715,715,715,715,766,766,715,670,667,
665,668,715,715,715,716,766,766,715,715,691,691,766,716,766,766,766,766,715,715,715,670,667,
665,668,716,716,715,715,716,716,715,715,715,716,715,716,716,691,691,691,691,766,715,670,667,
665,668,715,691,691,715,715,715,715,715,716,716,715,766,766,716,715,715,715,691,691,670,667,
665,668,715,691,715,716,641,641,641,641,715,716,716,715,716,716,715,715,667,1863,1864,670,667,
665,668,715,691,691,716,691,691,691,691,715,715,715,715,715,766,766,766,667,1901,1902,670,667,
665,693,694,694,694,694,694,694,694,694,694,694,694,647,694,694,694,694,694,694,694,695,667,
690,691,691,691,691,691,691,691,691,691,691,691,691,691,691,691,691,691,691,691,691,691,692
</data>
 </layer>
 <layer id="4" name="water" width="23" height="11">
  <data encoding="csv">
0,1531,0,1489,1487,1488,1410,1411,0,0,0,0,1530,1531,1412,1413,1520,1521,1522,1298,1299,0,0,
0,1569,1371,1527,1525,1526,1448,1449,0,0,0,0,1568,1569,1450,1451,1558,1559,1560,1336,1337,0,0,
0,1490,1409,0,0,0,0,0,0,0,0,0,0,0,0,0,0,0,0,0,0,0,0,
0,1528,0,0,0,0,0,0,0,0,0,0,0,0,0,0,0,0,0,0,1446,0,0,
0,0,0,1707,1708,1709,0,1707,1708,1709,0,0,0,0,0,0,0,0,0,0,0,0,0,
0,0,0,1745,1746,1747,0,1745,1746,1747,0,0,0,0,0,0,0,0,0,0,0,0,0,
0,0,0,0,0,0,0,0,0,0,0,0,0,0,0,0,0,0,0,0,0,0,0,
0,0,0,0,0,0,0,0,0,0,0,0,0,0,0,0,0,0,0,0,0,0,0,
0,0,0,0,0,0,0,0,0,0,0,0,0,0,0,0,0,0,0,0,0,0,0,
0,0,0,0,0,0,0,0,0,0,0,0,0,0,0,0,0,0,0,0,0,0,0,
0,0,0,0,0,0,0,0,0,0,0,0,0,0,0,0,0,0,0,0,0,0,0
</data>
 </layer>
 <layer id="3" name="walls" width="23" height="11">
  <data encoding="csv">
0,0,0,0,0,0,0,0,0,1905,1867,1868,0,1911,1912,0,0,0,0,0,0,0,0,
0,0,0,0,0,0,0,0,0,0,0,0,0,0,0,0,0,0,0,0,0,0,0,
0,0,0,0,0,0,0,0,0,0,0,0,0,0,0,0,0,0,0,0,0,0,0,
1674,0,0,0,0,0,0,0,0,0,0,0,0,0,0,0,0,0,0,0,0,0,1673,
1712,0,0,0,0,0,0,0,0,0,0,0,0,0,0,0,0,0,0,0,0,0,1711,
0,0,1710,1278,1279,1280,1279,1280,1279,1281,1824,0,0,0,0,0,0,0,0,0,0,0,0,
0,0,1748,1316,1317,1318,1317,1318,1317,1319,1862,0,0,0,0,0,0,0,0,0,0,0,0,
1674,0,1786,1354,1355,1356,1355,1356,1355,1357,1900,0,0,0,0,0,0,0,0,0,0,0,1673,
1712,0,0,1745,1746,1747,0,1745,1746,1747,0,0,0,0,0,0,0,0,0,0,0,0,1711,
0,0,0,0,0,0,0,0,0,0,0,0,0,0,0,0,0,0,0,0,0,0,0,
0,0,0,0,0,1675,1676,0,0,0,0,0,0,0,0,0,1675,1676,0,0,0,0,0
</data>
 </layer>
 <layer id="5" name="decor" width="23" height="11" visible="0">
  <data encoding="csv">
0,0,1461,1462,1463,1464,1300,1301,1302,1672,1865,1866,1672,0,1905,0,0,2088,1482,1483,1484,2086,0,
0,0,1499,1500,1501,1502,1338,1339,1340,0,0,1925,1926,1887,1888,1794,1795,2126,1520,1521,1522,2124,0,
0,0,1537,1538,1539,1540,1376,1377,1378,0,0,1828,1829,1830,1831,1832,1833,0,1558,1559,1560,0,1675,
0,0,1575,1576,1577,1578,0,0,0,0,0,0,0,0,0,0,0,1707,1708,1709,0,2090,1713,
0,0,0,0,0,0,0,0,0,0,0,0,0,0,0,0,0,1745,1746,1747,0,2128,0,
0,0,0,0,0,0,0,0,0,0,0,0,0,0,0,0,1710,1271,1272,1273,1824,0,0,
0,0,0,0,0,0,0,0,0,0,0,0,0,0,0,0,1748,1309,1310,1311,1862,0,0,
0,0,1940,1941,1942,0,0,0,0,0,0,0,0,0,0,0,1786,1347,1348,1349,1900,0,0,
0,0,1978,1979,1980,0,0,0,0,0,0,0,0,0,0,0,0,1745,1746,1747,0,0,0,
0,0,0,0,0,0,0,0,0,0,0,0,0,0,0,0,0,0,0,0,0,0,0,
0,0,0,0,1675,1676,0,0,0,0,0,0,0,0,0,0,1675,1676,0,0,0,0,0
</data>
 </layer>
 <objectgroup id="6" name="doors">
  <object id="1" name="The Woods" x="302.5" y="111" width="33" height="32.5">
   <properties>
    <property name="TargetName" value="The Woods"/>
    <property name="spawnx" type="float" value="0"/>
    <property name="spawny" type="float" value="0"/>
   </properties>
  </object>
 </objectgroup>
</map>
